!!!OTL: En nouus sol emicuit
**kern
*staff1
=1-
*clefF4
*k[b-]
2r
2G\
2G\
2G\
=2
2G\
2F\
2F\
2G\
=3
2D\
2D\
2GG/
2D\
=4
2G\
2E\
2D\
2D\
1GG
=5
!!linebreak:original
2r
2GG/
1D
2GG/
2G\
=6
1F
1F
=7
2BB-/
2AA/
1GG
=8
1D
2E\
4D\
4C/
=9
2BB-/
2C/
2BB-/
2GG/
1D
=10
!!linebreak:original
2r
2GG/
2GG/
2GG/
2GG/
2GG/
=11
2D\
2F\
4F\
4E\
4D\
4C/
=12
2BB-/
2C/
4GG/
4AA/
4BB-/
4C/
=13
1D
0GG
==
*-
!!title: @{OTL}, @{GTL}, ed. @{ENC}
!!!pag:
!!!GTL: Hymnbook D
!!!EFL: 
!!!YEM: Creative Commons CC/BY/NC/SA 4.0
!!!ENC: Marcin Konik
!!!END: 2015-0m-dd
!!!EED: Marcin Konik
!!!EEV: 
!!!ONB: Encoded in vim by Marcin Konik
!!!CharacterEncoding: utf-8
!!!RDF**kern: l=long note in original notation
!!!RDF**kern: i=editorial accidental
!!muse2ps: z14jc180F
!!!COM: Anonim
!!!CDT: [?]
!!!TXO: Polish
!!!ODT: 
!!!GTL: Hymnbook D
!!!ARL: Opactwo św. Wojciecha, Staniątki 
!!!voices:	1
